svgs/sharp-solid/h6.svg

<svg xmlns="http://www.w3.org/2000/svg" viewBox="0 0 640 512"><!--! Font Awesome Pro 6.6.0 by @fontawesome - https://fontawesome.com License - https://fontawesome.com/license (Commercial License) Copyright 2024 Fonticons, Inc. --><path d="M64 64l0 32 0 128 192 0 0-128 0-32 64 0 0 32 0 160 0 160 0 32-64 0 0-32 0-128L64 288l0 128 0 32L0 448l0-32L0 256 0 96 0 64l64 0zM496 384a80 80 0 1 0 0-160 80 80 0 1 0 0 160zM352 304c0-38 12.1-75 34.6-105.6L485.1 64l79.4 0-70.4 96c.6 0 1.3 0 1.9 0c79.5 0 144 64.5 144 144s-64.5 144-144 144s-144-64.5-144-144z"/></svg>

<svg xmlns="http://www.w3.org/2000/svg" viewBox="0 0 640 512"><!--! Font Awesome Pro 6.4.0 by @fontawesome - https://fontawesome.com License - https://fontawesome.com/license (Commercial License) Copyright 2023 Fonticons, Inc. --><path d="M64 64V96 224H256V96 64h64V96 256 416v32H256V416 288H64V416v32H0V416 256 96 64H64zM496 384a80 80 0 1 0 0-160 80 80 0 1 0 0 160zM352 304c0-38 12.1-75 34.6-105.6L485.1 64h79.4l-70.4 96c.6 0 1.3 0 1.9 0c79.5 0 144 64.5 144 144s-64.5 144-144 144s-144-64.5-144-144z"/></svg>
